contributed-vectors/pratilipi.svg

<svg xmlns="http://www.w3.org/2000/svg" xml:space="preserve" style="fill-rule:evenodd;clip-rule:evenodd;stroke-linejoin:round;stroke-miterlimit:2" viewBox="0 0 192 192"><circle cx="88" cy="88" r="88" style="fill:#ff837d" transform="translate(8 8)"/><path d="M108.485 104.923v31.991h-34.78s-7.546.208-7.546 2.461c0 2.252 5.414 2.05 11.073 2.296 5.66.246 31.499 2.379 33.877 2.461 2.379.082 6.53-1.132 6.235-9.515-.356-10.095 0-63.431 0-63.431s.237-10.558-4.681-10.558c-4.919 0-4.84 4.487-4.84 6.375 0 1.151-.027 27.055-.027 27.055s.896 13.853-14.984 13.984c-15.881.131-16.036-19.197-16.012-22.639.023-3.284-.06-19.196-.06-19.196s.132-5.596-4.101-5.578c-3.61.015-4.482 3.359-4.512 5.332-.028 1.893 0 26.166 0 26.166s-.984 21.819 22.804 21.327c0 0 11.402 1.067 17.554-8.531" style="fill:#fff"/><circle cx="112.251" cy="45.61" r="6.484" style="fill:#fff"/></svg>

<?xml version="1.0" encoding="UTF-8" standalone="no"?>
<!DOCTYPE svg PUBLIC "-//W3C//DTD SVG 1.1//EN" "http://www.w3.org/Graphics/SVG/1.1/DTD/svg11.dtd">
<svg width="100%" height="100%" viewBox="0 0 192 192" version="1.1" xmlns="http://www.w3.org/2000/svg" xmlns:xlink="http://www.w3.org/1999/xlink" xml:space="preserve" xmlns:serif="http://www.serif.com/" style="fill-rule:evenodd;clip-rule:evenodd;stroke-linejoin:round;stroke-miterlimit:2;">
    <g id="Layer1">
        <g transform="matrix(1,0,0,1,8,8)">
            <circle cx="88" cy="88" r="88" style="fill:rgb(255,131,125);"/>
        </g>
        <path d="M108.485,104.923L108.485,136.914L73.705,136.914C73.705,136.914 66.159,137.122 66.159,139.375C66.159,141.627 71.573,141.425 77.232,141.671C82.892,141.917 108.731,144.05 111.109,144.132C113.488,144.214 117.639,143 117.344,134.617C116.988,124.522 117.344,71.186 117.344,71.186C117.344,71.186 117.581,60.628 112.663,60.628C107.744,60.628 107.823,65.115 107.823,67.003C107.823,68.154 107.796,94.058 107.796,94.058C107.796,94.058 108.692,107.911 92.812,108.042C76.931,108.173 76.776,88.845 76.8,85.403C76.823,82.119 76.74,66.207 76.74,66.207C76.74,66.207 76.872,60.611 72.639,60.629C69.029,60.644 68.157,63.988 68.127,65.961C68.099,67.854 68.127,92.127 68.127,92.127C68.127,92.127 67.143,113.946 90.931,113.454C90.931,113.454 102.333,114.521 108.485,104.923" style="fill:white;"/>
        <circle cx="112.251" cy="45.61" r="6.484" style="fill:white;"/>
    </g>
</svg>
